weblate_web/static/img/logo-pma.svg

<svg xmlns="http://www.w3.org/2000/svg" xmlns:xlink="http://www.w3.org/1999/xlink" width="238" height="34" version="1.1" viewBox="0 0 238 34"><title>4541E923-2256-4027-9DFA-2C06490DD89C</title><desc>Created with sketchtool.</desc><g id="Weblate" fill="none" fill-rule="evenodd" stroke="none" stroke-width="1"><g id="Home" fill="#2A3744" fill-rule="nonzero" transform="translate(-1001.000000, -816.000000)"><g id="Users" transform="translate(345.000000, 730.000000)"><g id="LogoPhpMyAdmin" transform="translate(656.000000, 86.000000)"><g id="Php" fill-opacity=".7" transform="translate(0.000000, 4.702804)"><path id="path66" d="M3.60783876,5.90140224 L12.1818454,5.90140224 C14.7580826,5.90140224 16.649833,6.63482355 17.8571858,8.10122766 C19.0640637,9.56807028 19.4556961,11.6119469 19.0319188,14.2331626 C18.8581769,15.3084968 18.5481859,16.295412 18.1017182,17.1942321 C17.6550631,18.0931159 17.0652641,18.9143779 16.3320671,19.6573129 C15.460255,20.5513794 14.4844023,21.1919521 13.4037564,21.5785163 C12.3231697,21.9650232 10.9412153,22.1583084 9.25827181,22.1583084 L5.43926185,22.1583084 L4.48904904,28.0377918 L0.0299962604,28.0377918 L3.60783876,5.90140224 L3.60783876,5.90140224 Z M7.50050677,9.40338318 L5.99986351,18.6884527 L8.71193884,18.6884527 C10.509644,18.6884527 11.8419623,18.3214815 12.7093862,17.5865794 C13.5760983,16.8516138 14.1477896,15.6287514 14.4245381,13.9174075 C14.6912691,12.2671047 14.5361713,11.1024553 13.9606383,10.4224935 C13.3846535,9.74323701 12.2497717,9.40338318 10.5557124,9.40338318 L7.50050677,9.40338318 L7.50050677,9.40338318 Z"/><path id="path68" d="M24.0378068,0.0219315888 L28.4632188,0.0219315888 L27.5130053,5.90140224 L31.4500032,5.90140224 C33.9278641,5.90140224 35.6451488,6.37105346 36.6024922,7.30951701 C37.5601425,8.24856523 37.870485,9.76135551 37.5330525,11.8491779 L35.8667112,22.1583084 L31.3742798,22.1583084 L32.9601287,12.346652 C33.1407081,11.2312232 33.0532036,10.4726736 32.6980256,10.0705585 C32.3428286,9.66895813 31.5996311,9.46764 30.4693587,9.46764 L26.937241,9.46764 L24.8861684,22.1583084 L20.4599855,22.1583084 L24.0378068,0.0219315888"/><path id="path70" d="M42.3530526,5.90140224 L50.9269947,5.90140224 C53.5038102,5.90140224 55.394983,6.63482355 56.6023376,8.10122766 C57.8094673,9.56807028 58.2009121,11.6119469 57.7773903,14.2331626 C57.6036471,15.3084968 57.2933975,16.295412 56.8474446,17.1942321 C56.4004691,18.0931159 55.8101573,18.9143779 55.0774726,19.6573129 C54.2054018,20.5513794 53.2296158,21.1919521 52.1489706,21.5785163 C51.0685764,21.9650232 49.6866855,22.1583084 48.0031644,22.1583084 L44.1847197,22.1583084 L43.2345068,28.0377918 L38.7756813,28.0377918 L42.3530526,5.90140224 L42.3530526,5.90140224 Z M46.2462344,9.40338318 L44.7455913,18.6884527 L47.4576665,18.6884527 C49.2553075,18.6884527 50.5874332,18.3214815 51.454343,17.5865794 C52.3212476,16.8516138 52.8932604,15.6287514 53.1699442,13.9174075 C53.4364826,12.2671047 53.2816421,11.1024553 52.7057876,10.4224935 C52.1298028,9.74323701 50.994921,9.40338318 49.3014401,9.40338318 L46.2462344,9.40338318 L46.2462344,9.40338318 Z"/></g><g id="MyAdmin" transform="translate(60.945794, 0.000000)"><polyline id="path72" points="4.369 .021 12.945 .021 16.713 20.603 27.133 .021 35.677 .021 31.342 26.843 25.617 26.843 29.465 5.951 18.958 26.843 12.754 26.843 8.808 5.732 5.982 26.843 .034 26.843 4.369 .021"/><path id="path74" d="M45.9689469,22.5021978 L50.2986404,22.5021978 L52.7802209,7.14464561 L58.1625671,7.14464561 L55.0646015,26.3139092 C54.6440437,28.9200568 53.7018942,30.8503925 52.2396908,32.104948 C50.777443,33.3588935 48.7488441,33.986311 46.1545996,33.986311 L35.6001353,33.986311 L36.2452774,29.9960583 L45.8732385,29.9960583 C46.9064191,29.9960583 47.7394,29.7546202 48.3722258,29.2722079 C49.0042,28.7889439 49.3953652,28.0894654 49.5432875,27.1728381 L49.5969439,26.8427966 L44.832794,26.8427966 C41.7854217,26.8427966 39.7071764,26.2618987 38.5988209,25.1000964 C37.4896901,23.9383705 37.1551428,22.0010187 37.5928213,19.2881301 L39.5559877,7.14464561 L44.8776041,7.14464561 L42.9797495,18.8866886 C42.7398748,20.3720692 42.8118467,21.3459245 43.1980041,21.8084834 C43.5833862,22.2710359 44.5067626,22.5021978 45.9689469,22.5021978"/><path id="path76" d="M72.6585974,0.0206097196 L78.856111,0.0206097196 L86.367086,26.8427966 L79.867468,26.8427966 L78.3481447,20.4584164 L66.2762127,20.4584164 L62.7690142,26.8427966 L56.5707125,26.8427966 L72.6585974,0.0206097196 L72.6585974,0.0206097196 Z M74.6700437,5.34658579 L68.9389275,15.6701297 L77.214483,15.6701297 L74.6700437,5.34658579 L74.6700437,5.34658579 Z"/><path id="path78" d="M106.658515,26.8427966 L96.3189305,26.8427966 C93.1944766,26.8427966 90.9001376,25.954437 89.4350871,24.1773936 C87.9708374,22.400668 87.4964325,19.9237649 88.009572,16.7473768 C88.2203084,15.445126 88.5960688,14.2492221 89.1376665,13.1601353 C89.6792325,12.0707436 90.3941413,11.0758718 91.283111,10.1750497 C92.3398819,9.0920385 93.5270793,8.31618393 94.8439279,7.84754953 C96.1607701,7.37884523 97.8336972,7.14464561 99.8619084,7.14464561 L104.479687,7.14464561 L105.630806,0.0206097196 L110.993686,0.0206097196 L106.658515,26.8427966 L106.658515,26.8427966 Z M101.978742,22.6189862 L103.794387,11.3879219 L100.539131,11.3879219 C98.355988,11.3879219 96.7362344,11.8295342 95.6782497,12.711831 C94.6218793,13.5947443 93.9259914,15.0649424 93.5936557,17.1221077 C93.2708464,19.1190262 93.461615,20.5341697 94.1660123,21.3681166 C94.870397,22.2020508 96.24448,22.6189862 98.2882613,22.6189862 L101.978742,22.6189862 L101.978742,22.6189862 Z"/><path id="path80" d="M114.521075,7.14464561 L135.190114,7.14464561 C138.18688,7.14464561 140.255262,7.71067888 141.394376,8.8414172 C142.532766,9.97277196 142.897437,11.8094456 142.486844,14.3514508 L140.467702,26.8427966 L135.044867,26.8427966 L136.954167,15.026945 C137.188691,13.5783099 137.116763,12.6227637 136.739135,12.1598172 C136.359987,11.6972583 135.46695,11.465785 134.058492,11.465785 L131.039146,11.465785 L128.553822,26.8427966 L123.050016,26.8427966 L125.53534,11.465785 L119.245169,11.465785 L116.759845,26.8427966 L111.337016,26.8427966 L114.521075,7.14464561"/><path id="path82" d="M154.47131,4.90621907 L148.826586,4.90621907 L149.616072,0.0206097196 L155.260797,0.0206097196 L154.47131,4.90621907 Z M150.925625,26.8427966 L145.280894,26.8427966 L148.464178,7.14464561 L154.108902,7.14464561 L150.925625,26.8427966 L150.925625,26.8427966 Z"/><path id="path84" d="M158.764824,7.14464561 L168.891854,7.14464561 C171.952464,7.14464561 174.048084,7.70157196 175.177819,8.81408374 C176.307604,9.92722467 176.664508,11.7730116 176.247764,14.3514508 L174.22939,26.8427966 L168.846269,26.8427966 L170.762496,14.9904284 C171.000312,13.5171989 170.918267,12.5615637 170.516349,12.123612 C170.114386,11.6851073 169.201388,11.465785 167.778135,11.465785 L163.449217,11.465785 L160.963899,26.8427966 L155.581553,26.8427966 L158.764824,7.14464561"/></g></g></g></g></g></svg>

<svg width="238" height="34" version="1.1" viewBox="0 0 238 34" xmlns="http://www.w3.org/2000/svg"><g fill="none" fill-rule="evenodd"><g transform="translate(-1001 -816)" fill="#2A3744" fill-rule="nonzero"><g transform="translate(345 730)"><g transform="translate(656 86)"><g transform="translate(0 4.7028)" fill-opacity=".7"><path d="m3.6078 5.9014h8.574c2.5762 0 4.468 0.73342 5.6753 2.1998 1.2069 1.4668 1.5985 3.5107 1.1747 6.1319-0.17374 1.0753-0.48373 2.0622-0.9302 2.9611-0.44666 0.89888-1.0365 1.7201-1.7697 2.4631-0.87181 0.89407-1.8477 1.5346-2.9283 1.9212-1.0806 0.38651-2.4625 0.57979-4.1455 0.57979h-3.819l-0.95021 5.8795h-4.4591l3.5778-22.136zm3.8927 3.502-1.5006 9.2851h2.7121c1.7977 0 3.13-0.36697 3.9974-1.1019 0.86671-0.73497 1.4384-1.9578 1.7152-3.6692 0.26673-1.6503 0.11163-2.815-0.4639-3.4949-0.57598-0.67926-1.7109-1.0191-3.4049-1.0191h-3.0552z"/><path d="m24.038 0.021932h4.4254l-0.95021 5.8795h3.937c2.4779 0 4.1951 0.46965 5.1525 1.4081 0.95765 0.93905 1.268 2.4518 0.93056 4.5397l-1.6663 10.309h-4.4924l1.5858-9.8117c0.18058-1.1154 0.093075-1.874-0.2621-2.2761-0.3552-0.4016-1.0984-0.60292-2.2287-0.60292h-3.5321l-2.0511 12.691h-4.4262l3.5778-22.136"/><path d="m42.353 5.9014h8.5739c2.5768 0 4.468 0.73342 5.6753 2.1998 1.2071 1.4668 1.5986 3.5107 1.1751 6.1319-0.17374 1.0753-0.48399 2.0622-0.92995 2.9611-0.44698 0.89888-1.0373 1.7201-1.77 2.4631-0.87207 0.89407-1.8479 1.5346-2.9285 1.9212-1.0804 0.38651-2.4623 0.57979-4.1458 0.57979h-3.8184l-0.95021 5.8795h-4.4588l3.5774-22.136zm3.8932 3.502-1.5006 9.2851h2.7121c1.7976 0 3.1298-0.36697 3.9967-1.1019 0.8669-0.73497 1.4389-1.9578 1.7156-3.6692 0.26654-1.6503 0.1117-2.815-0.46416-3.4949-0.57598-0.67926-1.7109-1.0191-3.4043-1.0191h-3.0552z"/></g><g transform="translate(60.946)"><polyline points="4.369 0.021 12.945 0.021 16.713 20.603 27.133 0.021 35.677 0.021 31.342 26.843 25.617 26.843 29.465 5.951 18.958 26.843 12.754 26.843 8.808 5.732 5.982 26.843 0.034 26.843 4.369 0.021"/><path d="m45.969 22.502h4.3297l2.4816-15.358h5.3823l-3.098 19.169c-0.42056 2.6061-1.3627 4.5365-2.8249 5.791-1.4622 1.2539-3.4908 1.8814-6.0851 1.8814h-10.554l0.64514-3.9903h9.628c1.0332 0 1.8662-0.24144 2.499-0.72385 0.63197-0.48326 1.0231-1.1827 1.1711-2.0994l0.053656-0.33004h-4.7641c-3.0474 0-5.1256-0.5809-6.234-1.7427-1.1091-1.1617-1.4437-3.0991-1.006-5.812l1.9632-12.143h5.3216l-1.8979 11.742c-0.23987 1.4854-0.1679 2.4592 0.21825 2.9218 0.38538 0.46255 1.3088 0.69371 2.7709 0.69371"/><path d="m72.659 0.02061h6.1975l7.511 26.822h-6.4996l-1.5193-6.3844h-12.072l-3.5072 6.3844h-6.1983l16.088-26.822zm2.0114 5.326-5.7311 10.324h8.2756l-2.5444-10.324z"/><path d="m106.66 26.843h-10.34c-3.1245 0-5.4188-0.88836-6.8838-2.6654-1.4642-1.7767-1.9387-4.2536-1.4255-7.43 0.21074-1.3023 0.5865-2.4982 1.1281-3.5872 0.54157-1.0894 1.2565-2.0843 2.1454-2.9851 1.0568-1.083 2.244-1.8589 3.5608-2.3275 1.3168-0.4687 2.9898-0.7029 5.018-0.7029h4.6178l1.1511-7.124h5.3629l-4.3352 26.822zm-4.6798-4.2238 1.8156-11.231h-3.2553c-2.1831 0-3.8029 0.44161-4.8609 1.3239-1.0564 0.88291-1.7523 2.3531-2.0846 4.4103-0.32281 1.9969-0.13204 3.4121 0.57236 4.246 0.70438 0.83393 2.0785 1.2509 4.1222 1.2509h3.6905z"/><path d="m114.52 7.1446h20.669c2.9968 0 5.0651 0.56603 6.2043 1.6968 1.1384 1.1314 1.5031 2.968 1.0925 5.51l-2.0191 12.491h-5.4228l1.9093-11.816c0.23452-1.4486 0.1626-2.4042-0.21503-2.8671-0.37915-0.46256-1.2722-0.69403-2.6806-0.69403h-3.0193l-2.4853 15.377h-5.5038l2.4853-15.377h-6.2902l-2.4853 15.377h-5.4228l3.1841-19.698"/><path d="m154.47 4.9062h-5.6447l0.78949-4.8856h5.6447l-0.78949 4.8856zm-3.5457 21.937h-5.6447l3.1833-19.698h5.6447l-3.1833 19.698z"/><path d="m158.76 7.1446h10.127c3.0606 0 5.1562 0.55693 6.286 1.6694 1.1298 1.1131 1.4867 2.9589 1.0699 5.5374l-2.0184 12.491h-5.3831l1.9162-11.852c0.23782-1.4732 0.15577-2.4289-0.24615-2.8668-0.40196-0.4385-1.315-0.65783-2.7382-0.65783h-4.3289l-2.4853 15.377h-5.3823l3.1833-19.698"/></g></g></g></g></g></svg>
